packages/katcn/src/icons/svg/atom-solid.svg

<svg width="24" height="25" viewBox="0 0 24 25" fill="none" xmlns="http://www.w3.org/2000/svg">
<path d="M6.52449 6.69581C7.61679 5.62264 8.8084 4.64703 10 3.76898C8.11329 2.69581 6.32589 2.20801 4.93568 2.20801C3.94268 2.20801 3.24758 2.50069 2.75107 2.9885C1.55947 4.15923 1.75807 6.89093 3.54548 10.208C4.33988 8.93972 5.33288 7.76898 6.52449 6.69581Z" fill="black"/>
<path d="M20.4571 14.208C19.5766 15.382 18.5982 16.556 17.522 17.73C16.4459 18.8062 15.2718 19.8824 14 20.6651C14.6848 21.0564 15.4675 21.3499 16.1524 21.6434C18.5004 22.4261 20.2614 22.4261 21.2397 21.4477C22.2181 20.4694 22.2181 18.6106 21.4354 16.3604C21.2397 15.5777 20.8484 14.8928 20.4571 14.208Z" fill="black"/>
<path d="M3.54293 14.208C3.1516 14.8928 2.85809 15.6755 2.56459 16.3604C1.78192 18.6106 1.78192 20.4694 2.76026 21.4477C3.64077 22.4261 5.59745 22.4261 7.84764 21.6434C8.53249 21.3499 9.21733 21.0564 10 20.6651C8.82599 19.7846 7.65198 18.8062 6.47796 17.73C5.40179 16.556 4.42344 15.382 3.54293 14.208Z" fill="black"/>
<path d="M19 12.208C18.137 10.8655 17.0822 9.61897 15.8356 8.37239C14.589 7.12582 13.2466 6.07102 12 5.20801C10.6575 6.07102 9.41096 7.12582 8.16438 8.37239C6.91781 9.61897 5.86301 10.8655 5 12.208C5.86301 13.4546 6.91781 14.797 8.16438 16.0436C9.41096 17.2902 10.6575 18.345 12 19.208C13.3425 18.345 14.589 17.2902 15.8356 16.0436C17.0822 14.797 18.137 13.5505 19 12.208ZM12 13.8381C11.137 13.8381 10.3699 13.071 10.3699 12.208C10.3699 11.345 11.137 10.5779 12 10.5779C12.863 10.5779 13.6301 11.345 13.6301 12.208C13.6301 13.071 12.863 13.8381 12 13.8381Z" fill="black"/>
<path d="M20.438 10.208C20.8341 9.51665 21.1313 8.72653 21.4284 8.03517C22.2208 5.76356 22.2208 3.88702 21.2303 2.89937C20.7351 2.5043 19.9427 2.20801 19.0513 2.20801C18.1599 2.20801 17.2685 2.40554 16.179 2.8006C15.4857 3.0969 14.7924 3.39319 14 3.78825C15.1885 4.67714 16.3771 5.6648 17.5656 6.75122C18.6551 7.83764 19.6456 9.02282 20.438 10.208Z" fill="black"/>
</svg>

<svg xmlns="http://www.w3.org/2000/svg" fill="none" viewBox="0 0 24 25"><path fill="#000" d="M6.524 6.696C7.617 5.623 8.808 4.647 10 3.769 8.113 2.696 6.326 2.208 4.936 2.208c-.993 0-1.688.293-2.185.78-1.192 1.171-.993 3.903.794 7.22a16.6 16.6 0 0 1 2.98-3.512m13.932 7.512a47 47 0 0 1-2.935 3.522c-1.076 1.076-2.25 2.152-3.522 2.935.685.391 1.467.685 2.152.978 2.348.783 4.11.783 5.088-.195.978-.979.978-2.837.195-5.088-.195-.782-.587-1.467-.978-2.152m-16.914 0c-.391.685-.685 1.467-.978 2.152-.783 2.25-.783 4.11.195 5.088.88.978 2.837.978 5.088.195.684-.293 1.37-.587 2.152-.978a47 47 0 0 1-3.522-2.935 47 47 0 0 1-2.935-3.522m15.457-2c-.863-1.342-1.918-2.589-3.164-3.836S13.246 6.071 12 5.208c-1.342.863-2.589 1.918-3.836 3.164S5.863 10.866 5 12.208c.863 1.247 1.918 2.589 3.164 3.836s2.494 2.301 3.836 3.164c1.342-.863 2.589-1.918 3.836-3.164S18.137 13.55 19 12.208m-7 1.63c-.863 0-1.63-.767-1.63-1.63s.767-1.63 1.63-1.63 1.63.767 1.63 1.63-.767 1.63-1.63 1.63m8.438-3.63c.396-.691.693-1.481.99-2.173.793-2.271.793-4.148-.198-5.136-.495-.395-1.287-.691-2.179-.691s-1.782.198-2.872.593c-.693.296-1.387.592-2.179.987a47 47 0 0 1 3.566 2.963 23 23 0 0 1 2.872 3.457"/></svg>
